src/css/fonts/SVGs/socials/linkedin.svg

<?xml version="1.0" encoding="UTF-8"?>
<svg xmlns="http://www.w3.org/2000/svg" xmlns:xlink="http://www.w3.org/1999/xlink" width="48pt" height="48pt" viewBox="0 0 48 48" version="1.1">
<g id="surface1">
<path style=" stroke:none;fill-rule:nonzero;fill:black;fill-opacity:1;" d="M 33.351562 41.984375 C 33.351562 41.789062 33.351562 41.617188 33.351562 41.445312 C 33.351562 37.554688 33.371094 33.664062 33.339844 29.773438 C 33.332031 28.789062 33.25 27.792969 33.066406 26.828125 C 32.710938 24.9375 31.652344 24.050781 29.804688 23.960938 C 28.613281 23.90625 27.503906 24.148438 26.644531 25.085938 C 25.914062 25.882812 25.597656 26.886719 25.488281 27.957031 C 25.40625 28.765625 25.367188 29.582031 25.363281 30.398438 C 25.351562 34.101562 25.359375 37.804688 25.359375 41.507812 C 25.359375 41.664062 25.359375 41.820312 25.359375 42 C 22.96875 42 20.621094 42 18.242188 42 C 18.242188 33.996094 18.242188 25.996094 18.242188 17.976562 C 20.511719 17.976562 22.765625 17.976562 25.078125 17.976562 C 25.078125 19.054688 25.078125 20.109375 25.078125 21.167969 C 25.105469 21.175781 25.132812 21.179688 25.160156 21.1875 C 25.21875 21.109375 25.285156 21.039062 25.335938 20.957031 C 26.566406 18.90625 28.390625 17.8125 30.636719 17.464844 C 32.25 17.214844 33.847656 17.363281 35.410156 17.875 C 37.65625 18.609375 39.023438 20.242188 39.746094 22.53125 C 40.273438 24.199219 40.464844 25.925781 40.476562 27.667969 C 40.503906 32.363281 40.496094 37.054688 40.5 41.746094 C 40.5 41.8125 40.492188 41.878906 40.484375 41.984375 C 38.121094 41.984375 35.769531 41.984375 33.351562 41.984375 Z M 33.351562 41.984375 "/>
<path style=" stroke:none;fill-rule:nonzero;fill:black;fill-opacity:1;" d="M 6.605469 17.980469 C 8.984375 17.980469 11.332031 17.980469 13.699219 17.980469 C 13.699219 25.996094 13.699219 33.984375 13.699219 41.996094 C 11.332031 41.996094 8.984375 41.996094 6.605469 41.996094 C 6.605469 34 6.605469 26.003906 6.605469 17.980469 Z M 6.605469 17.980469 "/>
<path style=" stroke:none;fill-rule:nonzero;fill:black;fill-opacity:1;" d="M 14.273438 10.320312 C 14.277344 12.726562 12.433594 14.660156 10.136719 14.660156 C 7.84375 14.660156 5.992188 12.714844 6 10.316406 C 6.007812 7.929688 7.839844 6.007812 10.121094 6 C 12.417969 5.992188 14.269531 7.917969 14.273438 10.320312 Z M 14.273438 10.320312 "/>
</g>
</svg>

<svg xmlns="http://www.w3.org/2000/svg" viewBox="0 0 48 48">
  <path d="M33.352 41.984v-.539c0-3.89.02-7.78-.012-11.672-.008-.984-.09-1.98-.274-2.945-.355-1.89-1.414-2.777-3.261-2.867-1.192-.055-2.301.187-3.16 1.125-.73.797-1.047 1.8-1.157 2.871a25.416 25.416 0 0 0-.125 2.441c-.011 3.704-.004 7.407-.004 11.11V42h-7.117V17.977h6.836v3.191c.027.008.055.012.082.02.059-.079.125-.149.176-.231 1.23-2.05 3.055-3.145 5.3-3.492 1.614-.25 3.212-.102 4.774.41 2.246.734 3.613 2.367 4.336 4.656.527 1.668.719 3.395.73 5.137.028 4.695.02 9.387.024 14.078 0 .066-.008.133-.016.238h-7.132ZM6.605 17.98H13.7v24.016H6.605V17.98Zm7.668-7.66c.004 2.407-1.84 4.34-4.136 4.34-2.293 0-4.145-1.945-4.137-4.344C6.008 7.93 7.84 6.008 10.121 6c2.297-.008 4.149 1.918 4.152 4.32Zm0 0"/>
</svg>
